X:245
T:the Lonsdale or Lon Sclater Hornpipe (re-tune adae, play as written)
B:John of the Greeny Cheshire Way
L:1/8
M:3/2
N: John Offord, Reproduced with permission
O:England
R:Triple Hornpipe
Z:Steve Bliven (bliven@massed.net)
%%TUNEURL: http://www.leeds.ac.uk/music/Info/RRTuneBk/gettune/0000030a.html
%%ID:0000030a
K:D
P:1
F4 A4 d4 | F2 FG A2 AB G2 GA |\
F4 A4 d4 | E2 EF G2 GA B2 AG ||
P:2
F2 D/2E/2F/2G/2 A2 F/2G/2A/2B/2 d2 dA | F2 D/2E/2F/2G/2 A2 AB G2 GA |\
F2 D/2E/2F/2G/2 A2 FA           c2 cc | E2 EF           G2 GA B2 AG ||
P:3
F2 D/2E/2F/2G/2 AFdF AFdF | F2 D/2E/2F/2G/2 AFAF BGBG |\
F2 D/2E/2F/2G/2 AFdF AFdF | E2 EE           cEcE cEcE ||
P:4
d2 f2 d2 f2 d2 dA | d2 f2 d2 f2 c2 ce |\
B2 g2 B2 g2 B2 BB | A2 a2 A2 a2 c2 BA ||
P:5
agfe defg a3 b | agfe defd g3  g      |\
fedc Bcde f3 f | edcB ABcd e2 cB/2A/2 ||
P:6
d2 fd fdfd d3 A | d2 fd fdfd ecec |\
B2 gB gBgB gBgB | A2 aA aAaA c2 BA||
P:7
d2 FA d2 FA d3 e |  d2 FA d2 Fa =c3 A |\
B2 GB B2 GB B2 GB| ^c2 Ac c2 Ac c2 Ac ||
P:8
dAFA dAFA d3 f  | dAFA dAFA =c2 cd |\
BAGF EFGA B^cdB | edcB ABcd e2 d/2c/2B/2A/2 ||
P:9
F2 D/2E/2F/2G/2 A2 F2 A2 G,2 | D2  F2 A2 GA EFGE |\
D2 F2           G2 FG A2 G,2 | B,2 E2 G2 GF EFGE ||
P:10
DEFE DEFE D2 G,2 | DEFE DEFE EFGE |\
DEFE DEFE D2 G,2 | B,2 G2 B,2 G2 B,2 G2 |]
